src/icons/uploading.svg

<svg height="32" viewBox="0 0 32 32" width="32" xmlns="http://www.w3.org/2000/svg"><path d="m14.672295 15.982038-10.6216919 9.553713c-.7341375.660327-.7341375 1.728087 0 2.381391l1.7650978 1.587614c.7341374.660326 1.9212715.660326 2.647597 0l7.5288891-6.771893 7.528913 6.771893c.734137.660326 1.92127.660326 2.647595 0l1.780702-1.580573c.734137-.660345.734137-1.728105 0-2.381409l-10.621694-9.553732c-.734137-.667348-1.921251-.667348-2.655408-.0074zm2.655408-13.4876208 10.621694 9.5537318c.734137.660326.734137 1.728086 0 2.38139l-1.765078 1.587612c-.734157.660327-1.921271.660327-2.647618 0l-7.536702-6.7648864-7.5288891 6.7719094c-.7341375.660327-1.9212716.660327-2.6476184 0l-1.7728884-1.587593c-.7341375-.660346-.7341375-1.728106 0-2.38141l10.6216919-9.5537138c.734157-.6673682 1.921271-.6673682 2.655408-.00742z" fill="#4285f4" stroke-width=".07407"/></svg>

<?xml version="1.0" encoding="UTF-8" standalone="no"?>
<svg
   xmlns:dc="http://purl.org/dc/elements/1.1/"
   xmlns:cc="http://creativecommons.org/ns#"
   xmlns:rdf="http://www.w3.org/1999/02/22-rdf-syntax-ns#"
   xmlns:svg="http://www.w3.org/2000/svg"
   xmlns="http://www.w3.org/2000/svg"
   xmlns:sodipodi="http://sodipodi.sourceforge.net/DTD/sodipodi-0.dtd"
   xmlns:inkscape="http://www.inkscape.org/namespaces/inkscape"
   viewBox="0 0 32 32"
   version="1.1"
   id="svg4"
   sodipodi:docname="uploading.svg"
   inkscape:version="0.92.4 5da689c313, 2019-01-14"
   width="32"
   height="32">
  <metadata
     id="metadata10">
    <rdf:RDF>
      <cc:Work
         rdf:about="">
        <dc:format>image/svg+xml</dc:format>
        <dc:type
           rdf:resource="http://purl.org/dc/dcmitype/StillImage" />
        <dc:title />
      </cc:Work>
    </rdf:RDF>
  </metadata>
  <defs
     id="defs8" />
  <sodipodi:namedview
     pagecolor="#ffffff"
     bordercolor="#666666"
     borderopacity="1"
     objecttolerance="10"
     gridtolerance="10"
     guidetolerance="10"
     inkscape:pageopacity="0"
     inkscape:pageshadow="2"
     inkscape:window-width="1366"
     inkscape:window-height="703"
     id="namedview6"
     showgrid="false"
     inkscape:zoom="10.727273"
     inkscape:cx="12.072034"
     inkscape:cy="11"
     inkscape:window-x="0"
     inkscape:window-y="0"
     inkscape:window-maximized="1"
     inkscape:current-layer="svg4" />
  <path
     inkscape:connector-curvature="0"
     d="M 14.672295,15.982038 4.0506031,25.535751 c -0.7341375,0.660327 -0.7341375,1.728087 0,2.381391 l 1.7650978,1.587614 c 0.7341374,0.660326 1.9212715,0.660326 2.647597,0 l 7.5288891,-6.771893 7.528913,6.771893 c 0.734137,0.660326 1.92127,0.660326 2.647595,0 l 1.780702,-1.580573 c 0.734137,-0.660345 0.734137,-1.728105 0,-2.381409 L 17.327703,15.989042 c -0.734137,-0.667348 -1.921251,-0.667348 -2.655408,-0.0074 z M 17.327703,2.4944172 27.949397,12.048149 c 0.734137,0.660326 0.734137,1.728086 0,2.38139 l -1.765078,1.587612 c -0.734157,0.660327 -1.921271,0.660327 -2.647618,0 L 15.999999,9.2522646 8.4711099,16.024174 c -0.7341375,0.660327 -1.9212716,0.660327 -2.6476184,0 L 4.0506031,14.436581 c -0.7341375,-0.660346 -0.7341375,-1.728106 0,-2.38141 L 14.672295,2.5014572 c 0.734157,-0.6673682 1.921271,-0.6673682 2.655408,-0.00742 z"
     id="path2-3"
     style="fill:#4285f4;fill-opacity:1;stroke-width:0.07407028" />
</svg>
